X:1
T:Io ti lascio
T:Giovanni Animuccia
T:Source : Libro primo delle Laude spirituali a tre voci---Roma---A.Gardano---1583. Editor : André Vierendeels (24/11/17). Notes : Original clefs : G2, C2, C3 Editorial accidentals above the staff
T:Io ti lascio
T:©
T:©
C:Giovanni Animuccia
Z:©
%%score [ 1 2 3 ]
L:1/8
Q:1/4=96
M:4/4
K:F
V:1 treble nm="Soprano" snm="S"
V:2 treble nm="Alto" snm="A"
V:3 treble-8 nm="Tenor" snm="T"
V:1
"^1)" c3 c c2 c2 | c4 d4 | c4 c4 | z4 B2 B2 | B2 B2 B4 | A4 G4 | G4 z4 | c3 c c2 c2 | c4 d4 | %9
w: Io ti la- scio,|stol- to|mon- do,|mon- do|fal- so, mon-|do cie-|co,-|star non vo- glio'hor-|mai piu|
w: Tu pro- met- ti,|e poi|non dai,|po- chi|fat- ti'af- fai|pa- ro-|le,|ond'- ogn' un per|te si|
 c4 c4 | z4 d2 d2 | c4 A4 | B4 G4 | A4 !fermata!A4 :| %14
w: te- co,|io ti|la- scio|mon- do'im-|mon- do.|
w: duo- le,|e si|to- va'in|pian- ti'e|gua- i.|
V:2
"^2)""^1)" A3 A A2 A2 | A4 B4 | A4 A4 | z4 G2 G2 | G2 G2 G4 | F4 E4 | E4 z4 | A3 A A2 A2 | A4 B4 | %9
w: Io ti la- scio,|stol- to|mon- do,|mon- do|fal- so, mon-|do cie-|co,|star non vo- glio'hor-|mai piu|
w: Ben è stol- to|chi ti|cre- de,|e chi|se- gue'i tuoi|pia- ce-|ri,|per- che per- de'i|gau- dii|
 A4 A4 | z4 F2 F2 | E4 F4 | D4 E4 | F4 F4 :| %14
w: te- co,|io ti|la- scio|mon- do'im-|mon- do.|
w: ve- ri,|che pro-|met- te'à|noi la|fe- de.|
V:3
"^3)""^1)""^4)" f3 f f2 f2 | f4 B4 | f4 f4 | z4 _e2 e2 | _e2 e2 e4 | f4 c4 | c4 z4 | f3 f f2 f2 | %8
w: Io ti la- scio,|stol- to|mon- do,|mon- do|fal- so, mon-|do cie-|co,|star non vo- glio'hor-|
w: En- trar vo- glio'in|Chio- stri|San- ti|a ser-|vir' il buon|Gi- e-|su,|te- co star non|
 f4 B4 | f4 f4 | z4 B2 B2 | c4 d4 | B4 c4 | F4 F4 :| %14
w: mai piu|te- co,|io ti|la- scio|mon- do'im-|mon- do.|
w: vo- gli-|o piu,|per fug-|gir gl'e-|ter- ni|pian- ti;|

